X:1
T:Sieh, Hier Bin Ich, 87.87.87
T:Sieh, Hier Bin Ich, 87.87.87
T:Geistreiches Gesangbuch (Darmstad
T:Public Domain Courtesy of the Cyber Hymnal™
C:Geistreiches Gesangbuch (Darmstad
Z:Public Domain
Z:Courtesy of the Cyber Hymnal™
%%score ( 1 2 ) ( 3 4 )
L:1/8
Q:1/4=115
M:4/4
K:D
V:1 treble 
V:2 treble 
V:3 bass 
V:4 bass 
V:1
 [DF]2 [DF]2 [DB]2 [DB]2 | [CA]3 [EG] [DF]2 D2 | [EA]2 [DF]2 [DB]2 [DA]2 | [DG]2 [CG]2 [DF]4 | %4
 [CE]2 [CE]2 [B,E]2 [A,C]2 | [A,D]2 E2 [DF]2 [DF]2 | [DF]2 [E^G]2 [EA]2 [FB]2 | [FA]2 [^E^G]2 F4 | %8
 [Fc]2 [Fc]2 [Fd]2 (cB) | [F^A]2 [DB]2 [Fc]2 F2 | [Fd]2 (cB) [F^A]2 [DB]2 | [GB]2 [F^A]2 [FB]4 |] %12
V:2
 x8 | x6 D2 | x8 | x8 | x8 | x2 E2 x4 | x8 | x4 F4 | x6 G2 | x6 F2 | x2 E2 x4 | x8 |] %12
V:3
 [B,,F,]2 [B,,F,]2 [G,,G,]2 [G,,G,]2 | [A,,E,]3 [C,A,] [D,A,]2 [D,F,]2 | %2
 [C,A,]2 [D,A,]2 G,2 [F,A,]2 | [E,B,]2 [E,A,]2 [D,A,]4 | [A,,A,]2 [A,,A,]2 [^G,,E,]2 [A,,E,]2 | %5
 [D,F,]2 [C,A,]2 [D,A,]2 [D,A,]2 | [D,A,]2 [D,B,]2 [C,A,]2 [B,,D]2 | [C,C]2 [C,C]2 [F,,^A,]4 | %8
 [F,^A,]2 [F,A,]2 [D,B,]2 [E,E]2 | [F,C]2 [G,B,]2 [F,^A,]2 [F,A,]2 | %10
 [B,,B,]2 [G,B,]2 [F,C]2 [G,B,]2 | [E,C]2 [F,C]2 [B,,^D]4 |] %12
V:4
 x8 | x8 | x4 G,2 x2 | x8 | x8 | x8 | x8 | x8 | x8 | x8 | x8 | x8 |] %12

